X: 9
T: Jenny Lind
R: polka
M: 2/4
L: 1/8
K: Dmaj
|: ([EG[[GB]) ([FA][Ac]) | .[GB].d (g/^f/.g) | ([FA]f) (f/=e/.f) | [(EG]e) (e/d/.e) | ([EG[[GB]) ([FA][Ac]) | ([GB]d) (g/^f/.g) | ([FA]f) (f/=e/.f) | [GBe][GBe] [GBe] z :||: .e'.c' {d/}c/=b/c' | bg {a/}g/^f/g | .a.f {g/}f/=e/f | ge {f/}e/d/e |.e'.c' {d/}c/=b/c' | bg {a/}g/^f/g | .a.f {g/}f/=e/f | .[GBe].[GBe] .[GBe] z :||: ([EG[[GB]) ([FA][Ac]) | .[GB].d (g/^f/.g) | ([FA]f) (f/=e/.f) | [(EG]e) (e/d/.e) |([EG[[GB]) ([FA][Ac]) | ([GB]d) (g/^f/.g) | ([FA]f) (f/=e/.f) | [GBe][GBe] [GBe] z |||: (3f/g/f/ (=e/f/) .b.d | .f.e {f/}(e/d/e) | (3f/g/f/ (=e/f/) ._e'.a | .c'.b {c'/}(b/a/b) |(3f/g/f/ (=e/f/) .b.d | .f.e {f/}(e/d/e) | (3f/g/f/ =e/f/ ._e'.a | {c'/}.b.b .b z :||:([f/a/]b/c') ([f/a/]b/c') | {b/}.d'.c {a/}(g/^f/g) | {b/}.d'.c {b/}.d'.c | a'f' {d'/}(c'/=b/c |([f/a/]b/c') ([f/a/]b/c') | {b/}.d'.c {a/}(g/^f/g) | {b/}.d'.c {b/c'/}(ba/g/) | .f.f .f z :|(3f/g/f/ (=e/f/) .b.d | .f.e {f/}e/d/e | (3f/g/f/ (=e/f/) ._e'.a | .c'.b {c'/}(b/a/b) |(3f/g/f/ (=e/f/) .b.d | .f.e {f/}(e/d/e) | (3f/g/f/ (=e/f/) ._e'.a | {c'/}.b.b .b z |]


Tune 4883	Setting 17312

